src/assets/flags/sh.svg

<?xml version="1.0" encoding="UTF-8"?>
<svg xmlns="http://www.w3.org/2000/svg" xmlns:xlink="http://www.w3.org/1999/xlink" width="25px" height="px" viewBox="0 0 25 19" version="1.1">
<g id="surface1">
<rect x="0" y="0" width="25" height="19" style="fill:rgb(0.392157%,12.941177%,41.176471%);fill-opacity:1;stroke:none;"/>
<path style=" stroke:none;fill-rule:nonzero;fill:rgb(100%,100%,100%);fill-opacity:1;" d="M 2.929688 0 L 12.460938 7.164062 L 21.953125 0 L 25 0 L 25 2.453125 L 15.625 9.539062 L 25 16.585938 L 25 19 L 21.875 19 L 12.5 11.914062 L 3.164062 19 L 0 19 L 0 16.625 L 9.335938 9.578125 L 0 2.535156 L 0 0 Z M 2.929688 0 "/>
<path style=" stroke:none;fill-rule:nonzero;fill:rgb(78.431374%,6.27451%,18.039216%);fill-opacity:1;" d="M 16.5625 11.121094 L 25 17.417969 L 25 19 L 14.414062 11.121094 Z M 9.375 11.914062 L 9.609375 13.300781 L 2.109375 19 L 0 19 Z M 25 0 L 25 0.117188 L 15.273438 7.558594 L 15.351562 5.820312 L 23.046875 0 Z M 0 0 L 9.335938 6.964844 L 6.992188 6.964844 L 0 1.664062 Z M 0 0 "/>
<path style=" stroke:none;fill-rule:nonzero;fill:rgb(100%,100%,100%);fill-opacity:1;" d="M 9.414062 0 L 9.414062 19 L 15.664062 19 L 15.664062 0 Z M 0 6.332031 L 0 12.667969 L 25 12.667969 L 25 6.332031 Z M 0 6.332031 "/>
<path style=" stroke:none;fill-rule:nonzero;fill:rgb(78.431374%,6.27451%,18.039216%);fill-opacity:1;" d="M 0 7.640625 L 0 11.441406 L 25 11.441406 L 25 7.640625 Z M 10.664062 0 L 10.664062 19 L 14.414062 19 L 14.414062 0 Z M 10.664062 0 "/>
</g>
</svg>

<svg xmlns="http://www.w3.org/2000/svg" width="25" height="px" viewBox="0 0 25 19"><path d="M0 0h25v19H0z" style="fill:#012169;fill-opacity:1;stroke:none"/><path d="m2.93 0 9.53 7.164L21.954 0H25v2.453L15.625 9.54 25 16.586V19h-3.125L12.5 11.914 3.164 19H0v-2.375l9.336-7.047L0 2.535V0Zm0 0" style="stroke:none;fill-rule:nonzero;fill:#fff;fill-opacity:1"/><path d="M16.563 11.121 25 17.418V19l-10.586-7.879Zm-7.188.793.234 1.387L2.11 19H0ZM25 0v.117L15.273 7.56l.079-1.739L23.047 0ZM0 0l9.336 6.965H6.992L0 1.665Zm0 0" style="stroke:none;fill-rule:nonzero;fill:#c8102e;fill-opacity:1"/><path d="M9.414 0v19h6.25V0ZM0 6.332v6.336h25V6.332Zm0 0" style="stroke:none;fill-rule:nonzero;fill:#fff;fill-opacity:1"/><path d="M0 7.64v3.801h25v-3.8ZM10.664 0v19h3.75V0Zm0 0" style="stroke:none;fill-rule:nonzero;fill:#c8102e;fill-opacity:1"/></svg>
